X:1
T: Lezginka
O:russia
R:
N: Russian couple dance
B:
D:
Z: John Chambers <jc@trillian.mit.edu> http://trillian.mit.edu/~jc/music/
Z:Transcrit et/ou corrig par Michel BELLON - 2006-06-18
Z:Pour toute observation mailto:galouvielle@free.fr
M: 4/4
L: 1/8
K: Dm
P: Intro
"Dm"A2z2 A2z2 | "Gm"BAGB "Dm"AGFA | "Gm"GFEG "Dm"FED2 | "A7"^C2E2 A2A,2 ||
P: A
|: "Dm"D2F2 GF ED | "A7"^C2E2 A2z2 | E2G2 (3GAG FE |1 "Dm"F2D2 A2A,2 :|2 "Dm"F2D2 "D7"D2E^F ||
P: B
|: "Gm"G2B2 d2cB | "Dm"A2A2 A2GF | "A7"E2G2 (3GAG FE |1 "Dm"D2F2 A2z2 :|2 "Dm"D2F2 D2z2 ||
P: C
|| "Gm"B2z2 "Dm"A2z2 | "A7"GFEG "Dm"FED2 | "Gm"B2z2 "Dm"A2z2 | "A7"GFEF "Dm"D2z2 \
|  "Gm"G2z2 "Dm"F2z2 | "A7"EGFE "Dm"FED2 | "Gm"G2z2 "Dm"F2z2 | "A7"EGFE "Dm"D2z2 ||
P: D
B |: "Bb"B2d2 (3ded cB | "F"A2.c2 .c2zG | "C7"G2B2 ~B2AG |1 "F"F2A2 c2z2 :|2 "F"F2A2 F2z2 ||
P: E
|: "C7"C2E2 G2FE | "F"F2A2 c2z2 | "C7"C2E2 G2FE | "F"F2A2 F2z2 :|
P: C
|| "Gm"B2z2 "Dm"A2z2 | "A7"GFEG "Dm"FED2 | "Gm"B2z2 "Dm"A2z2 | "A7"GFEF "Dm"D2z2 \
|  "Gm"G2z2 "Dm"F2z2 | "A7"EGFE "Dm"FED2 | "Gm"G2z2 "Dm"F2z2 | "A7"EGFE "Dm"D2z2 ||
%%footer $D   Galouvielle-MBe 2008 \n-- (russia)
